FINK
CUT[VOEGLEIN SINGEN VOEGLEIN SPRINGEN]
REG[Europa, Mitteleuropa, Deutschland]
KEY[F0251  08  A 2/4]
MEL[  1_1_  1-712  3_3_  3234
    5_3_  1_-5_  1_3_  2__
    -5-6-71  2_2_  -7123  4_4_
    3_5_  1_1_  -7123  1__ //] >>
FCT[Jugend - Lied, Jahreszeiten, Fruehling]
